packages/flame/svg/Icons/icon-note.svg

<?xml version="1.0" encoding="UTF-8"?>
<svg width="16px" height="16px" viewBox="0 0 16 16" version="1.1" xmlns="http://www.w3.org/2000/svg" xmlns:xlink="http://www.w3.org/1999/xlink">
    <!-- Generator: sketchtool 64 (101010) - https://sketch.com -->
    <title>9CB4564A-86A5-45C0-83F3-B5BB9B1CC0C6@3.00x</title>
    <desc>Created with sketchtool.</desc>
    <g id="Symbols" stroke="none" stroke-width="1" fill="none" fill-rule="evenodd">
        <g id="note">
            <g>
                <path d="M16,10 L12,10 C10.8954305,10 10,10.8954305 10,12 L10,16 L10,16 L16,10 Z" id="base-2" fill="#232A3B" opacity="0.700000048"></path>
                <path d="M2,0 L14,0 C15.1045695,-2.02906125e-16 16,0.8954305 16,2 L16,10 L16,10 L12,10 C10.8954305,10 10,10.8954305 10,12 L10,16 L10,16 L2,16 C0.8954305,16 1.3527075e-16,15.1045695 0,14 L0,2 C-1.3527075e-16,0.8954305 0.8954305,2.02906125e-16 2,0 Z" id="base-1" fill="#232A3B"></path>
                <path d="M6,6 C6.55228475,6 7,6.44771525 7,7 C7,7.55228475 6.55228475,8 6,8 L4,8 C3.44771525,8 3,7.55228475 3,7 C3,6.44771525 3.44771525,6 4,6 L6,6 Z M9,3 C9.55228475,3 10,3.44771525 10,4 C10,4.55228475 9.55228475,5 9,5 L4,5 C3.44771525,5 3,4.55228475 3,4 C3,3.44771525 3.44771525,3 4,3 L9,3 Z M12,3 C12.5522847,3 13,3.44771525 13,4 C13,4.55228475 12.5522847,5 12,5 C11.4477153,5 11,4.55228475 11,4 C11,3.44771525 11.4477153,3 12,3 Z" id="details-2" fill="#FFFFFF" opacity="0.7"></path>
            </g>
        </g>
    </g>
</svg>

<svg xmlns="http://www.w3.org/2000/svg" viewBox="0 0 16 16"><g id="note"><path id="base-2" d="M16 10h-4a2 2 0 0 0-2 2v4l6-6z" opacity=".7"/><path id="base-1" d="M2 0h12a2 2 0 0 1 2 2v8h-4a2 2 0 0 0-2 2v4H2a2 2 0 0 1-2-2V2a2 2 0 0 1 2-2z"/><path id="details-2" d="M6 6a1 1 0 1 1 0 2H4a1 1 0 1 1 0-2h2zm3-3a1 1 0 1 1 0 2H4a1 1 0 1 1 0-2h5zm3 0a1 1 0 1 1 0 2 1 1 0 0 1 0-2z" opacity=".7" fill="#fff"/></g></svg>
